icon-themes/breeze_svg/cmd/32/switchxformsdesignmode.svg

<svg viewBox="0 0 32 32" xmlns="http://www.w3.org/2000/svg"><path d="m6 4v10.945312l1 .541016v-6.486328h18v16.236328l1 .541016v-16.777344-5zm-2 11v1.136719 10.863281 1h21.900391 2.097656zm1 1.679688 19.054688 10.320312h-19.054688z" fill="#4d4d4d"/></svg>

<svg xmlns="http://www.w3.org/2000/svg" viewBox="0 0 32 32">
 <path 
     style="fill:#4d4d4d" 
     d="M 6 4 L 6 14.945312 L 7 15.486328 L 7 9 L 25 9 L 25 25.236328 L 26 25.777344 L 26 9 L 26 4 L 6 4 z M 4 15 L 4 16.136719 L 4 27 L 4 28 L 25.900391 28 L 27.998047 28 L 4 15 z M 5 16.679688 L 24.054688 27 L 5 27 L 5 16.679688 z "
     />
</svg>
